svgs/light/border-all.svg

<svg xmlns="http://www.w3.org/2000/svg" viewBox="0 0 448 512"><!--! Font Awesome Pro 6.6.0 by @fontawesome - https://fontawesome.com License - https://fontawesome.com/license (Commercial License) Copyright 2024 Fonticons, Inc. --><path d="M384 64c17.7 0 32 14.3 32 32l0 144-176 0 0-176 144 0zm32 208l0 144c0 17.7-14.3 32-32 32l-144 0 0-176 176 0zM208 240L32 240 32 96c0-17.7 14.3-32 32-32l144 0 0 176zM32 272l176 0 0 176L64 448c-17.7 0-32-14.3-32-32l0-144zM64 32C28.7 32 0 60.7 0 96L0 416c0 35.3 28.7 64 64 64l320 0c35.3 0 64-28.7 64-64l0-320c0-35.3-28.7-64-64-64L64 32z"/></svg>

<svg xmlns="http://www.w3.org/2000/svg" viewBox="0 0 448 512"><!--! Font Awesome Pro 6.4.0 by @fontawesome - https://fontawesome.com License - https://fontawesome.com/license (Commercial License) Copyright 2023 Fonticons, Inc. --><path d="M384 64c17.7 0 32 14.3 32 32V240H240V64H384zm32 208V416c0 17.7-14.3 32-32 32H240V272H416zM208 240H32V96c0-17.7 14.3-32 32-32H208V240zM32 272H208V448H64c-17.7 0-32-14.3-32-32V272zM64 32C28.7 32 0 60.7 0 96V416c0 35.3 28.7 64 64 64H384c35.3 0 64-28.7 64-64V96c0-35.3-28.7-64-64-64H64z"/></svg>
